X:1
T:Title
%%score { ( 1 3 ) | ( 2 4 ) }
L:1/8
M:6/8
K:C
V:1 treble nm="Grand Piano"
V:3 treble 
V:2 bass 
V:4 bass 
V:1
 z3 z2[Q:1/4=100] [EG] | [Ec]3 [CE]2 [EG] | c3 D2 E | F2 [DG] [FB]2 [B,FA] | [FA]3 G2 [CEG] | %5
 B2 B F2 F | [FA]2 [FA] [EG]2 [EG] | ^F2 D B2 A | [B,G]3- [B,G]2 [B,G] | %9
 [B,F]2 [B,F] [B,D]2 [B,D] | [CE]2 [DF] [EG]2 [EG] | [FA]2 [FA] [FB]2 [Ec] | d6 | %13
 [Ec]3 [CE]2 [EG] | [Ge]3 z3 |[M:1/8] [FA] |[M:3/4] G2 [FG] [FA]2 [FB] | [Ec]3 d3 | e3 [Af]3 | %19
 [Ge]6 | [Fd]6 |[M:5/8] [Ec]-[Ec]- [Ec]3 |] %22
V:2
 z3 z2 [C,G,] | [C,G,]3 [C,G,]2 [C,C] | [E,_B,C]3 [F,A,]2 [E,G,C] | %3
 [D,G,B,]2 [B,,G,] [G,,G,]2 G,, | z3 E2 C, | [G,DF]2 [G,DF][K:bass] [G,B,D]2 [G,B,D] | %6
 [C,C]2 [C,C] [C,C]2 [C,C] | [D,A,D]2 [D,^F,] [D,F,D]2 [D,F,C] | [G,,G,]3- [G,,G,]2 [G,,G,] | %9
 [G,,G,]2 [G,,G,] [G,,G,]2 [G,,G,] | [C,G,]2 [C,G,] [C,C]2 [C,C] | [F,C]2 [F,C] [D,G,]2 [C,G,] | %12
 .D3 z2 [G,F] | [C,G,]3 [C,G,]2 [C,C] | .[C,_B,]3 [_E,A,]3 |[M:1/8] [D,C] | %16
[M:3/4] [E,C]2 [D,B,] [B,,G,]2 [G,,G,] | [C,G,]3[K:treble] [G,B,G]3 | [CG]3[K:bass] [F,C]3 | %19
 [G,C]3 E,2 C, | [G,B,]6 |[M:5/8] [C,C]-[C,C]- [C,C]3 |] %22
V:3
 x6 | x6 | x6 | x6 | C6 | x6 | x6 | x6 | x6 | x6 | x6 | x6 | z EF G2 G | x6 | z2 E, [^Fc]3 | %15
[M:1/8] x |[M:3/4] x6 | x6 | x6 | z2 z C2 C | x6 |[M:5/8] x5 |] %22
V:4
 x6 | x6 | x6 | x6 | C,6 | x3[K:bass] x3 | x6 | x6 | x6 | x6 | x6 | x6 | [G,B,]6 | x6 | x6 | %15
[M:1/8] x |[M:3/4] x6 | x3[K:treble] x3 | x3[K:bass] x3 | x6 | x6 |[M:5/8] x5 |] %22

